img/pseudo-04.svg

<svg width="37" height="51" viewBox="0 0 37 51" fill="none" xmlns="http://www.w3.org/2000/svg">
<path opacity="0.08" d="M23.2995 31.715L25.1895 16C25.2829 15.3467 25.3879 14.6583 25.5045 13.935C25.6212 13.2117 25.7729 12.465 25.9595 11.695L10.3145 31.715H23.2995ZM36.5995 31.715L35.9345 37C35.8879 37.49 35.6779 37.9217 35.3045 38.295C34.9312 38.645 34.4529 38.82 33.8695 38.82H30.5445L29.0395 51H20.9545L22.4245 38.82H3.27953C2.6962 38.82 2.19453 38.6333 1.77453 38.26C1.35453 37.8867 1.1212 37.42 1.07453 36.86L0.689531 32.17L26.4495 0.214997H35.2695L31.4195 31.715H36.5995Z" fill="#262D33"/>
</svg>

<svg width="37" height="51" fill="none" xmlns="http://www.w3.org/2000/svg"><path opacity=".08" d="M23.3 31.715L25.19 16c.093-.653.198-1.342.314-2.065.117-.723.269-1.47.455-2.24l-15.644 20.02h12.984zm13.3 0L35.934 37c-.046.49-.256.922-.63 1.295-.373.35-.851.525-1.434.525h-3.325L29.038 51h-8.085l1.47-12.18H3.28a2.189 2.189 0 01-1.505-.56 2.035 2.035 0 01-.7-1.4L.69 32.17 26.45.215h8.82l-3.85 31.5h5.18z" fill="#262D33"/></svg>
